X: 316
T: Tennessee Mountain Fox Chase
B: canberra pickers and fiddlers
B: tunes
M:C|
L:1/8
R: reel
Q: 1/4=100
K:C
V:1 
ed|cdcA GcAc|cded cded|cdcG Aceg|1age[de]- [c2e2]:|2aged c2||
|:ea|g2ea g2ea|g2 eg agea|g2 ea g2 eg|aged c2 :|
|:eg|a2 g2- gagd|J[e6e6] e2|a2 g2-gage|d2 [c2e2]-[ce]deg|
a2 g2- gagd|([ee]-[de]-[e2e2])- [ee]dcA|d2[e2e2]- [ee]dcA|c4- c2:|]
% abcbook-tune_id 63da5934848f31224684e070
% abcbook-tune_composer_id 
% abcbook-link-0 https://www.youtube.com/watch?v=0kiOWPYD4oc
% abcbook-boost 0
% abcbook-difficulty 0
% abcbook-tags canberra pickers and fiddlers,old time tunes,© free
% abcbook-tablature 
% abcbook-transpose 
% abcbook-tuning GDAE
% abcbook-lastupdated 1737186737716
% abcbook-src-url https://tunebook.net/scrape/tunes.abc
% abcbook-soundfonts 
% abcbook-repeats 1
%%gchordfont "itim-music,Itim" 20

